X:1
T:Title
%%score { ( 1 3 ) | 2 }
L:1/8
M:4/4
K:Db
V:1 treble nm="Grand Piano"
V:3 treble 
V:2 bass 
V:1
 z4 z2[Q:1/4=100] [FA]2 | [FA]3 [FA] [F=G][FA][_GB][FA] | [Fd]6 F2 | F3 F _F=FGF |[M:3/4] [FA]6 | %5
[M:1/4] F2 |[M:4/4] D3 D BBAA | G6 G2 | F3 F [DE][DE][DF][DE] |[M:5/8] [CE]- [CE]3 z | %10
[M:3/8] A,DE |[M:4/4] F6 z2 | A6 z2 |[M:17/16] f/-f/-f-<f z/ z/ z/ z/ z/ z/ z/ z/ z/ z | %14
[M:3/4] [Fd]6 |] %15
V:2
 z4 z2 [D,D]2 | [D,D]3 [D,D] [D,D][D,D][D,D][D,D] | [D,A,]6 [D,A,D]2 | %3
 [D,A,D]3 [D,A,D] [D,=G,D][D,A,D][D,B,D][D,A,D] |[M:3/4] [D,D]6 |[M:1/4] [D,A,D]2 | %6
[M:4/4] [B,,B,]3 [B,,B,] [G,D][G,D][F,A,D][F,A,D] | [E,A,C]6 [E,A,C]2 | %8
 [D,A,D]3 [D,A,D] [B,,=G,][B,,G,][E,G,][E,G,] |[M:5/8] [A,,A,]- [A,,A,]3 z |[M:3/8] z3 | %11
[M:4/4] z [D,A,][D,A,][D,A,] .[D,A,]2 z2 | z [D,D][D,D][D,D] .[D,D]2 z2 | %13
[M:17/16] z [D,D][D,D][E,C][F,D][F,D][A,E][A,,A,]3/2 |[M:3/4] [D,A,]6 |] %15
V:3
 x8 | x8 | x8 | x8 |[M:3/4] x6 |[M:1/4] x2 |[M:4/4] x8 | x8 | x8 |[M:5/8] x5 |[M:3/8] x3 | %11
[M:4/4] z DDD DDFG | z FFF FFAd |[M:17/16] z AA[Ae][Ad]Ac[Ge]3/2 |[M:3/4] x6 |] %15

